;FLAVOR:Marlin
M73 P0
M117 Time Left 0h27m07s
;TIME:1627
;Filament used: 0.769546m
;Layer height: 0.2
;MINX:89.836
;MINY:89.836
;MINZ:0.2
;MAXX:130.151
;MAXY:130.164
;MAXZ:35
;POSTPROCESSED
;Generated with Cura_SteamEngine 4.7.1
M140 S50
M105
M190 S50
M104 S200
M105
M109 S200
M82 ;absolute extrusion mode
; Ender 3 Custom Start G-code
G92 E0 ; Reset Extruder
G28 ; Home all axes
G1 Z2.0 F3000 ; Move Z Axis up little to prevent scratching of Heat Bed
G1 X0.1 Y20 Z0.3 F5000.0 ; Move to start position
G1 X0.1 Y200.0 Z0.3 F1500.0 E15 ; Draw the first line
G1 X0.4 Y200.0 Z0.3 F5000.0 ; Move to side a little
G1 X0.4 Y20 Z0.3 F1500.0 E30 ; Draw the second line
G92 E0 ; Reset Extruder
G1 Z2.0 F3000 ; Move Z Axis up little to prevent scratching of Heat Bed
G1 X5 Y20 Z0.3 F5000.0 ; Move over to prevent blob squish
G92 E0
G92 E0
G1 F2700 E-5
;LAYER_COUNT:175
;LAYER:0
M117 Layer 0 of 174 CE3_b0bf1db5-b73b-419e-8717-1a32a9e9f7c8
M107
G0 F6000 X95.607 Y95.895 Z0.2
;TYPE:SKIRT
G1 F2700 E0
G1 F1200 X95.908 Y95.595 E0.01413
G1 X96.45 Y95.076 E0.03909
G1 X97.043 Y94.55 E0.06546
G1 X97.28 Y94.356 E0.07564
G1 X97.666 Y94.056 E0.0919
G1 X98.339 Y93.557 E0.11977
G1 X99.076 Y93.059 E0.14935
G1 X99.794 Y92.618 E0.17738
G1 X100.541 Y92.201 E0.20583
G1 X101.289 Y91.824 E0.23369
G1 X102.066 Y91.472 E0.26207
G1 X102.872 Y91.147 E0.29097
G1 X103.714 Y90.85 E0.32067
G1 X104.328 Y90.663 E0.34201
G1 X104.747 Y90.545 E0.35649
G1 X105.157 Y90.439 E0.37058
G1 X105.543 Y90.347 E0.38378
G1 X106.15 Y90.215 E0.40444
G1 X107.027 Y90.064 E0.43404
G1 X107.937 Y89.948 E0.46455
G1 X108.33 Y89.905 E0.4777
G1 X108.398 Y89.899 E0.47997
G1 X108.784 Y89.873 E0.49283
G1 X109.203 Y89.852 E0.50679
G1 X109.641 Y89.839 E0.52136
G1 X110.063 Y89.836 E0.5354
G1 X110.494 Y89.842 E0.54973
G1 X110.921 Y89.857 E0.56395
G1 X111.342 Y89.881 E0.57797
G1 X111.577 Y89.899 E0.58581
G1 X112.09 Y89.951 E0.60296
G1 X112.975 Y90.064 E0.63263
G1 X113.838 Y90.212 E0.66176
G1 X114.444 Y90.343 E0.68238
G1 X114.875 Y90.446 E0.69712
G1 X115.287 Y90.554 E0.71128
G1 X115.663 Y90.66 E0.72428
G1 X116.276 Y90.846 E0.74558
G1 X117.127 Y91.146 E0.77559
G1 X117.931 Y91.47 E0.80442
G1 X118.709 Y91.822 E0.83283
G1 X119.459 Y92.2 E0.86076
G1 X120.205 Y92.617 E0.88919
G1 X120.92 Y93.056 E0.91709
G1 X121.651 Y93.549 E0.94642
G1 X122.336 Y94.056 E0.97476
G1 X122.633 Y94.284 E0.98722
G1 X123.067 Y94.642 E1.00593
G1 X123.256 Y94.807 E1.01427
G1 X123.617 Y95.137 E1.03054
G1 X124.107 Y95.608 E1.05315
G1 X124.405 Y95.908 E1.06721
G1 X124.924 Y96.45 E1.09217
G1 X125.436 Y97.027 E1.11783
G1 X125.63 Y97.263 E1.12799
G1 X125.949 Y97.671 E1.14521
G1 X126.448 Y98.345 E1.1731
G1 X126.938 Y99.07 E1.20221
G1 X127.376 Y99.782 E1.23001
G1 X127.797 Y100.535 E1.25871
G1 X128.177 Y101.289 E1.28679
G1 X128.526 Y102.061 E1.31497
G1 X128.851 Y102.866 E1.34384
G1 X129.151 Y103.715 E1.37379
G1 X129.337 Y104.326 E1.39503
G1 X129.454 Y104.744 E1.40947
G1 X129.561 Y105.158 E1.42369
G1 X129.652 Y105.536 E1.43662
G1 X129.784 Y106.141 E1.45722
G1 X129.936 Y107.027 E1.48712
G1 X130.012 Y107.624 E1.50714
G1 X130.056 Y108.036 E1.52092
G1 X130.113 Y108.697 E1.54298
G1 X130.151 Y109.573 E1.57215
G1 X130.151 Y110.419 E1.60028
G1 X130.114 Y111.285 E1.62911
G1 X130.057 Y111.954 E1.65145
G1 X130.012 Y112.38 E1.66569
G1 X129.936 Y112.975 E1.68564
G1 X129.788 Y113.837 E1.71473
G1 X129.659 Y114.434 E1.73505
G1 X129.558 Y114.859 E1.74958
G1 X129.448 Y115.28 E1.76405
G1 X129.34 Y115.663 E1.77729
G1 X129.154 Y116.276 E1.79859
G1 X128.854 Y117.127 E1.8286
G1 X128.53 Y117.931 E1.85743
G1 X128.182 Y118.699 E1.88548
G1 X127.807 Y119.445 E1.91325
G1 X127.383 Y120.206 E1.94222
G1 X126.941 Y120.925 E1.97029
G1 X126.449 Y121.653 E1.99952
G1 X125.944 Y122.335 E2.02774
G1 X125.73 Y122.615 E2.03947
G1 X125.358 Y123.067 E2.05894
G1 X125.193 Y123.256 E2.06728
G1 X124.863 Y123.617 E2.08355
G1 X124.392 Y124.107 E2.10615
G1 X124.092 Y124.405 E2.12022
G1 X123.55 Y124.924 E2.14518
G1 X122.973 Y125.436 E2.17083
G1 X122.737 Y125.63 E2.181
G1 X122.328 Y125.95 E2.19827
G1 X121.651 Y126.451 E2.22628
G1 X120.92 Y126.944 E2.25561
G1 X120.205 Y127.383 E2.28351
G1 X119.459 Y127.799 E2.31192
G1 X118.711 Y128.176 E2.33978
G1 X117.934 Y128.528 E2.36815
G1 X117.128 Y128.853 E2.39706
G1 X116.286 Y129.15 E2.42675
G1 X115.672 Y129.337 E2.4481
G1 X115.253 Y129.455 E2.46258
G1 X114.843 Y129.561 E2.47666
G1 X114.457 Y129.653 E2.48986
G1 X113.85 Y129.785 E2.51052
G1 X112.973 Y129.936 E2.54012
G1 X112.063 Y130.052 E2.57063
G1 X111.67 Y130.095 E2.58378
G1 X111.602 Y130.101 E2.58605
G1 X111.216 Y130.127 E2.59892
G1 X110.797 Y130.148 E2.61287
G1 X110.359 Y130.161 E2.62745
G1 X109.937 Y130.164 E2.64148
G1 X109.506 Y130.158 E2.65582
G1 X109.079 Y130.143 E2.67003
G1 X108.658 Y130.119 E2.68406
G1 X108.423 Y130.101 E2.6919
G1 X107.91 Y130.049 E2.70905
G1 X107.025 Y129.936 E2.73872
G1 X106.162 Y129.788 E2.76784
G1 X105.556 Y129.657 E2.78846
G1 X105.125 Y129.554 E2.8032
G1 X104.713 Y129.446 E2.81737
G1 X104.337 Y129.34 E2.83036
G1 X103.724 Y129.154 E2.85167
G1 X102.872 Y128.853 E2.88172
G1 X102.066 Y128.528 E2.91063
G1 X101.289 Y128.176 E2.939
G1 X100.541 Y127.799 E2.96686
G1 X99.795 Y127.383 E2.99527
G1 X99.08 Y126.944 E3.02317
G1 X98.349 Y126.451 E3.0525
G1 X97.664 Y125.944 E3.08084
G1 X97.446 Y125.778 E3.08996
G1 X97.354 Y125.706 E3.09384
G1 X96.935 Y125.359 E3.11194
G1 X96.747 Y125.195 E3.12023
G1 X96.383 Y124.862 E3.13664
G1 X95.892 Y124.39 E3.1593
G1 X95.594 Y124.091 E3.17334
G1 X95.075 Y123.549 E3.1983
G1 X94.563 Y122.972 E3.22395
G1 X94.369 Y122.736 E3.23411
G1 X94.047 Y122.325 E3.25148
G1 X93.547 Y121.649 E3.27945
G1 X93.059 Y120.925 E3.30848
G1 X92.617 Y120.206 E3.33656
G1 X92.193 Y119.445 E3.36553
G1 X91.818 Y118.699 E3.3933
G1 X91.47 Y117.931 E3.42134
G1 X91.146 Y117.127 E3.45018
G1 X90.85 Y116.286 E3.47983
G1 X90.663 Y115.672 E3.50118
G1 X90.543 Y115.246 E3.5159
G1 X90.435 Y114.827 E3.53029
G1 X90.345 Y114.448 E3.54325
G1 X90.215 Y113.85 E3.5636
G1 X90.064 Y112.97 E3.5933
G1 X89.948 Y112.058 E3.62387
G1 X89.908 Y111.694 E3.63605
G1 X89.902 Y111.628 E3.63826
G1 X89.873 Y111.216 E3.65199
G1 X89.852 Y110.797 E3.66595
G1 X89.839 Y110.358 E3.68056
G1 X89.836 Y109.933 E3.69469
G1 X89.842 Y109.5 E3.70909
G1 X89.857 Y109.076 E3.72321
G1 X89.881 Y108.658 E3.73713
G1 X89.899 Y108.423 E3.74497
G1 X89.951 Y107.912 E3.76205
G1 X90.064 Y107.026 E3.79176
G1 X90.213 Y106.157 E3.82109
G1 X90.344 Y105.552 E3.84167
G1 X90.446 Y105.126 E3.85624
G1 X90.555 Y104.71 E3.87055
G1 X90.662 Y104.33 E3.88368
G1 X90.847 Y103.721 E3.90485
G1 X91.146 Y102.873 E3.93475
G1 X91.47 Y102.069 E3.96358
G1 X91.82 Y101.296 E3.99181
G1 X92.2 Y100.541 E4.01992
G1 X92.627 Y99.777 E4.04903
G1 X93.065 Y99.066 E4.07681
G1 X93.549 Y98.35 E4.10555
G1 X94.055 Y97.666 E4.13385
G1 X94.213 Y97.458 E4.14254
G1 X94.284 Y97.367 E4.14637
G1 X94.657 Y96.916 E4.16584
G1 X94.828 Y96.721 E4.17447
G1 X95.142 Y96.379 E4.18991
G1 X95.607 Y95.895 E4.21223
G1 F2700 E-0.78777
;MESH:b0bf1db5-b73b-419e-8717-1a32a9e9f7c8.stl
G0 F6000 X100.738 Y104.768
G0 X101.664 Y105.314
G0 X100.93 Y108.446
G0 X100.797 Y110.018
G0 X100.93 Y111.554
G0 X101.338 Y113.083
G0 X101.968 Y114.491
G0 X102.829 Y115.768
G0 X103.919 Y116.907
G0 X105.163 Y117.828
G0 X106.571 Y118.54
G0 X107.771 Y118.907
G0 X110 Y119.373
;TYPE:WALL-INNER
G1 F2700 E4.21223
G1 F1200 X109.599 Y119.364 E4.22557
G1 X109.21 Y119.339 E4.23854
G1 X108.807 Y119.296 E4.25202
G1 X108.417 Y119.238 E4.26513
G1 X108.022 Y119.161 E4.27852
G1 X107.638 Y119.071 E4.29164
G1 X107.251 Y118.961 E4.30502
G1 X106.888 Y118.842 E4.31772
G1 X106.502 Y118.696 E4.33145
G1 X106.127 Y118.536 E4.34501
G1 X105.791 Y118.374 E4.35742
G1 X105.419 Y118.177 E4.37142
G1 X105.076 Y117.975 E4.38466
G1 X104.763 Y117.774 E4.39703
G1 X104.418 Y117.529 E4.4111
G1 X104.119 Y117.298 E4.42367
G1 X103.81 Y117.038 E4.4371
G1 X103.505 Y116.758 E4.45087
G1 X103.224 Y116.477 E4.46409
G1 X102.972 Y116.202 E4.47649
G1 X102.699 Y115.878 E4.49059
G1 X102.462 Y115.57 E4.50351
G1 X102.226 Y115.237 E4.51709
G1 X102.021 Y114.919 E4.52967
G1 X101.821 Y114.578 E4.54282
G1 X101.625 Y114.209 E4.55672
G1 X101.457 Y113.857 E4.56969
G1 X101.298 Y113.484 E4.58318
G1 X101.163 Y113.125 E4.59593
G1 X101.034 Y112.733 E4.60966
G1 X100.929 Y112.359 E4.62258
G1 X100.838 Y111.977 E4.63564
G1 X100.761 Y111.58 E4.64909
G1 X100.702 Y111.179 E4.66257
G1 X100.66 Y110.783 E4.67581
G1 X100.636 Y110.401 E4.68855
G1 X100.627 Y110.013 E4.70145
G1 X100.636 Y109.599 E4.71523
G1 X100.66 Y109.217 E4.72796
G1 X100.702 Y108.821 E4.7412
G1 X100.761 Y108.421 E4.75465
M73 P1
G1 X100.839 Y108.022 E4.76817
G1 X100.928 Y107.642 E4.78115
G1 X101.034 Y107.267 E4.79411
G1 X101.163 Y106.874 E4.80787
G1 X101.298 Y106.516 E4.8206
G1 X101.464 Y106.127 E4.83466
G1 X101.626 Y105.791 E4.84707
G1 X101.824 Y105.417 E4.86115
G1 X102.021 Y105.081 E4.8741
G1 X102.226 Y104.763 E4.88668
G1 X102.462 Y104.43 E4.90026
G1 X102.699 Y104.122 E4.91319
G1 X102.972 Y103.798 E4.92728
G1 X103.224 Y103.523 E4.93968
G1 X103.505 Y103.242 E4.9529
G1 X103.811 Y102.961 E4.96672
G1 X104.122 Y102.699 E4.98024
G1 X104.418 Y102.471 E4.99267
G1 X104.763 Y102.226 E5.00674
G1 X105.076 Y102.025 E5.01912
G1 X105.433 Y101.815 E5.03289
G1 X105.777 Y101.632 E5.04585
G1 X106.143 Y101.457 E5.05934
G1 X106.509 Y101.301 E5.07258
G1 X106.874 Y101.163 E5.08556
G1 X107.262 Y101.036 E5.09914
G1 X107.631 Y100.932 E5.11189
G1 X108.021 Y100.838 E5.12523
G1 X108.412 Y100.762 E5.13848
G1 X108.807 Y100.704 E5.15176
G1 X109.21 Y100.661 E5.16524
G1 X109.599 Y100.636 E5.1782
G1 X110 Y100.627 E5.19154
G1 X110.401 Y100.636 E5.20488
G1 X110.79 Y100.661 E5.21785
G1 X111.193 Y100.704 E5.23133
G1 X111.583 Y100.762 E5.24444
G1 X111.978 Y100.839 E5.25783
G1 X112.358 Y100.928 E5.27081
G1 X112.743 Y101.037 E5.28412
G1 X113.126 Y101.163 E5.29753
G1 X113.491 Y101.301 E5.3105
G1 X113.873 Y101.464 E5.32432
G1 X114.209 Y101.626 E5.33672
G1 X114.576 Y101.82 E5.35053
G1 X114.924 Y102.025 E5.36396
G1 X115.237 Y102.226 E5.37634
G1 X115.582 Y102.471 E5.39041
G1 X115.878 Y102.699 E5.40284
G1 X116.189 Y102.961 E5.41636
G1 X116.495 Y103.242 E5.43018
G1 X116.758 Y103.505 E5.44255
G1 X117.039 Y103.811 E5.45637
G1 X117.301 Y104.122 E5.46989
G1 X117.529 Y104.418 E5.48232
G1 X117.774 Y104.763 E5.4964
G1 X117.975 Y105.076 E5.50877
G1 X118.185 Y105.433 E5.52254
G1 X118.368 Y105.777 E5.5355
G1 X118.543 Y106.143 E5.549
G1 X118.693 Y106.494 E5.56169
G1 X118.834 Y106.865 E5.57489
G1 X118.966 Y107.267 E5.58897
G1 X119.067 Y107.626 E5.60137
G1 X119.162 Y108.021 E5.61488
G1 X119.236 Y108.403 E5.62782
G1 X119.297 Y108.813 E5.64161
G1 X119.339 Y109.209 E5.65486
G1 X119.364 Y109.596 E5.66775
G1 X119.373 Y109.987 E5.68076
G1 X119.364 Y110.401 E5.69453
G1 X119.34 Y110.783 E5.70727
G1 X119.298 Y111.179 E5.72051
G1 X119.239 Y111.579 E5.73396
G1 X119.161 Y111.978 E5.74748
G1 X119.072 Y112.358 E5.76046
G1 X118.966 Y112.733 E5.77342
G1 X118.837 Y113.125 E5.78715
G1 X118.702 Y113.484 E5.7999
G1 X118.536 Y113.873 E5.81397
G1 X118.374 Y114.209 E5.82638
G1 X118.177 Y114.582 E5.84041
G1 X117.979 Y114.919 E5.85341
G1 X117.774 Y115.237 E5.86599
G1 X117.538 Y115.57 E5.87957
G1 X117.301 Y115.878 E5.89249
G1 X117.028 Y116.202 E5.90659
G1 X116.776 Y116.477 E5.91899
G1 X116.495 Y116.758 E5.93221
G1 X116.19 Y117.038 E5.94598
G1 X115.881 Y117.298 E5.95941
G1 X115.582 Y117.529 E5.97198
G1 X115.237 Y117.774 E5.98605
G1 X114.924 Y117.975 E5.99842
G1 X114.567 Y118.185 E6.0122
G1 X114.223 Y118.368 E6.02516
G1 X113.86 Y118.541 E6.03853
G1 X113.498 Y118.696 E6.05163
G1 X113.112 Y118.842 E6.06536
G1 X112.745 Y118.962 E6.0782
G1 X112.369 Y119.068 E6.09119
G1 X111.979 Y119.162 E6.10454
G1 X111.588 Y119.238 E6.11778
G1 X111.193 Y119.296 E6.13106
G1 X110.79 Y119.339 E6.14454
G1 X110.401 Y119.364 E6.15751
G1 X110 Y119.373 E6.17085
G0 F6000 X110 Y119.773
;TYPE:WALL-OUTER
G1 F1200 X109.59 Y119.764 E6.18449
G1 X109.167 Y119.737 E6.19859
G1 X108.759 Y119.693 E6.21223
G1 X108.344 Y119.632 E6.22619
G1 X107.945 Y119.554 E6.23971
G1 X107.533 Y119.457 E6.25379
G1 X107.142 Y119.346 E6.2673
G1 X106.748 Y119.217 E6.28109
G1 X106.352 Y119.067 E6.29518
G1 X105.97 Y118.904 E6.30899
G1 X105.604 Y118.728 E6.3225
G1 X105.23 Y118.53 E6.33657
G1 X104.873 Y118.32 E6.35035
G1 X104.531 Y118.1 E6.36387
G1 X104.186 Y117.855 E6.37795
G1 X103.864 Y117.607 E6.39147
G1 X103.54 Y117.334 E6.40556
G1 X103.234 Y117.053 E6.41938
G1 X102.941 Y116.76 E6.43316
G1 X102.666 Y116.46 E6.44669
G1 X102.393 Y116.136 E6.46079
G1 X102.145 Y115.814 E6.4743
G1 X101.9 Y115.469 E6.48838
G1 X101.676 Y115.121 E6.50214
G1 X101.47 Y114.77 E6.51568
G1 X101.271 Y114.396 E6.52977
G1 X101.096 Y114.03 E6.54326
G1 X100.93 Y113.641 E6.55733
G1 X100.783 Y113.251 E6.57119
G1 X100.654 Y112.858 E6.58495
G1 X100.544 Y112.467 E6.59846
G1 X100.445 Y112.055 E6.61255
G1 X100.368 Y111.656 E6.62607
G1 X100.306 Y111.238 E6.64012
G1 X100.262 Y110.825 E6.65394
G1 X100.236 Y110.41 E6.66777
G1 X100.227 Y110.004 E6.68127
G1 X100.236 Y109.59 E6.69505
G1 X100.262 Y109.175 E6.70888
G1 X100.306 Y108.762 E6.72269
G1 X100.368 Y108.344 E6.73675
G1 X100.446 Y107.945 E6.75027
G1 X100.543 Y107.533 E6.76435
G1 X100.654 Y107.142 E6.77786
G1 X100.783 Y106.749 E6.79162
G1 X100.93 Y106.359 E6.80548
G1 X101.096 Y105.97 E6.81955
G1 X101.272 Y105.604 E6.83306
G1 X101.47 Y105.23 E6.84713
G1 X101.676 Y104.879 E6.86067
G1 X101.9 Y104.531 E6.87443
G1 X102.145 Y104.186 E6.88851
G1 X102.393 Y103.864 E6.90203
G1 X102.666 Y103.54 E6.91612
G1 X102.941 Y103.24 E6.92965
G1 X103.234 Y102.947 E6.94344
G1 X103.54 Y102.666 E6.95725
G1 X103.864 Y102.393 E6.97135
G1 X104.186 Y102.145 E6.98486
G1 X104.531 Y101.9 E6.99894
G1 X104.873 Y101.68 E7.01246
G1 X105.23 Y101.47 E7.02624
G1 X105.604 Y101.271 E7.04033
G1 X105.97 Y101.096 E7.05382
G1 X106.352 Y100.933 E7.06764
G1 X106.749 Y100.783 E7.08175
G1 X107.142 Y100.654 E7.09551
G1 X107.533 Y100.544 E7.10902
G1 X107.945 Y100.445 E7.12311
G1 X108.344 Y100.368 E7.13663
G1 X108.759 Y100.307 E7.15058
G1 X109.167 Y100.263 E7.16423
G1 X109.59 Y100.236 E7.17832
G1 X110 Y100.227 E7.19196
G1 X110.41 Y100.236 E7.2056
G1 X110.833 Y100.263 E7.2197
G1 X111.241 Y100.307 E7.23335
G1 X111.656 Y100.368 E7.2473
G1 X112.055 Y100.446 E7.26082
G1 X112.467 Y100.543 E7.2749
G1 X112.858 Y100.654 E7.28842
G1 X113.251 Y100.783 E7.30218
G1 X113.648 Y100.933 E7.31629
G1 X114.03 Y101.096 E7.33011
G1 X114.396 Y101.272 E7.34361
G1 X114.77 Y101.47 E7.35769
G1 X115.127 Y101.68 E7.37147
G1 X115.469 Y101.9 E7.38499
G1 X115.814 Y102.145 E7.39906
G1 X116.136 Y102.393 E7.41258
G1 X116.46 Y102.666 E7.42667
G1 X116.766 Y102.947 E7.44049
G1 X117.053 Y103.234 E7.45399
G1 X117.334 Y103.54 E7.46781
G1 X117.607 Y103.864 E7.4819
G1 X117.855 Y104.186 E7.49542
G1 X118.1 Y104.531 E7.50949
G1 X118.32 Y104.873 E7.52302
G1 X118.53 Y105.23 E7.53679
G1 X118.729 Y105.604 E7.55088
G1 X118.904 Y105.97 E7.56438
G1 X119.067 Y106.352 E7.57819
G1 X119.214 Y106.74 E7.59199
G1 X119.346 Y107.142 E7.60606
G1 X119.456 Y107.533 E7.61957
G1 X119.555 Y107.945 E7.63367
G1 X119.632 Y108.344 E7.64718
G1 X119.693 Y108.754 E7.66097
G1 X119.737 Y109.167 E7.67478
G1 X119.764 Y109.587 E7.68878
G1 X119.773 Y109.996 E7.70239
G1 X119.764 Y110.413 E7.71626
G1 X119.738 Y110.825 E7.72999
G1 X119.694 Y111.238 E7.74381
G1 X119.632 Y111.656 E7.75786
G1 X119.554 Y112.055 E7.77138
G1 X119.457 Y112.467 E7.78546
G1 X119.346 Y112.858 E7.79898
G1 X119.217 Y113.251 E7.81274
G1 X119.07 Y113.641 E7.8266
G1 X118.904 Y114.03 E7.84067
G1 X118.728 Y114.396 E7.85417
G1 X118.53 Y114.77 E7.86825
G1 X118.324 Y115.121 E7.88178
G1 X118.1 Y115.469 E7.89555
G1 X117.855 Y115.814 E7.90962
G1 X117.607 Y116.136 E7.92314
G1 X117.334 Y116.46 E7.93723
G1 X117.059 Y116.76 E7.95077
G1 X116.766 Y117.053 E7.96455
G1 X116.46 Y117.334 E7.97837
G1 X116.136 Y117.607 E7.99246
G1 X115.814 Y117.855 E8.00598
G1 X115.469 Y118.1 E8.02005
G1 X115.127 Y118.32 E8.03358
G1 X114.77 Y118.53 E8.04735
G1 X114.396 Y118.729 E8.06144
G1 X114.03 Y118.904 E8.07494
G1 X113.648 Y119.067 E8.08875
G1 X113.252 Y119.217 E8.10283
G1 X112.858 Y119.346 E8.11662
G1 X112.467 Y119.456 E8.13013
G1 X112.055 Y119.555 E8.14423
G1 X111.656 Y119.632 E8.15774
G1 X111.241 Y119.693 E8.17169
G1 X110.833 Y119.737 E8.18534
